Origami/64x64/apps/yaourtgui.svg

<svg width="64" height="64" version="1" xmlns="http://www.w3.org/2000/svg">
 <path d="m32 4c-15.512 0-28 12.488-28 28s12.488 28 28 28 28-12.488 28-28-12.488-28-28-28z" style="fill:#33aadd"/>
 <path d="M 32 4 C 16.488443 4 4 16.488 4 32 C 4 32.113556 4.0112848 32.224032 4.0175781 32.335938 C 4.3691112 17.134181 16.711164 5 32 5 C 47.288835 5 59.630889 17.134181 59.982422 32.335938 C 59.988693 32.224113 60 32.113448 60 32 C 60 16.488 47.511556 4 32 4 z" style="fill:#ffffff;opacity:.2"/>
 <path d="m19.056641 16.373047-5.65625 5.65625l14.599609 14.601562v18.369141h8v-18.34375l14.628906-14.626953-5.658203-5.65625-12.957031 12.957031-12.957031-12.957031z" style="opacity:.2"/>
 <path d="m19.056641 15.373047l-5.65625 5.65625 14.599609 14.601562v18.369141h8v-18.34375l14.628906-14.626953-5.658203-5.65625-12.957031 12.957031-12.957031-12.957031z" style="fill:#80fe9b"/>
 <path d="M 59.982422,32.664062 C 59.630879,47.865819 47.289272,60 32,60 16.712037,60 4.3711461,47.867898 4.0175781,32.667969 4.0114012,32.778588 4,32.887761 4,33 4,48.512 16.488,61 32,61 47.512,61 60,48.512 60,33 c 0,-0.113448 -0.01128,-0.224113 -0.01758,-0.335938 z" style="opacity:.2"/>
</svg>

<svg xmlns="http://www.w3.org/2000/svg" width="64" height="64" version="1">
 <path style="fill:#33aadd" d="M 32,4 C 16.488,4 4,16.488 4,32 4,47.512 16.488,60 32,60 47.512,60 60,47.512 60,32 60,16.488 47.512,4 32,4 Z"/>
 <path style="opacity:0.2;fill:#ffffff" d="M 32 4 C 16.488443 4 4 16.488 4 32 C 4 32.113556 4.0112848 32.224032 4.0175781 32.335938 C 4.3691112 17.134181 16.711164 5 32 5 C 47.288835 5 59.630889 17.134181 59.982422 32.335938 C 59.988693 32.224113 60 32.113448 60 32 C 60 16.488 47.511556 4 32 4 z"/>
 <path style="opacity:0.2" d="m 19.056641,16.373047 -5.65625,5.65625 L 28,36.630859 28,55 36,55 36,36.65625 50.628906,22.029297 44.970703,16.373047 32.013672,29.330078 19.056641,16.373047 Z"/>
 <path style="fill:#80fe9b" d="M 19.056641 15.373047 L 13.400391 21.029297 L 28 35.630859 L 28 54 L 36 54 L 36 35.65625 L 50.628906 21.029297 L 44.970703 15.373047 L 32.013672 28.330078 L 19.056641 15.373047 z"/>
 <path style="opacity:0.2" d="M 59.982422,32.664062 C 59.630879,47.865819 47.289272,60 32,60 16.712037,60 4.3711461,47.867898 4.0175781,32.667969 4.0114012,32.778588 4,32.887761 4,33 4,48.512 16.488,61 32,61 47.512,61 60,48.512 60,33 c 0,-0.113448 -0.01128,-0.224113 -0.01758,-0.335938 z"/>
</svg>
